X:1162
M:2/4
L:1/8
Q:1/4=88
K:G
c|Bdge|fddc|Bdge|d2 de/f/|gfed|edcB|cd ef/g/|d3

